X:2
T:Le battou cass
R:chanson
N:p.
B:Chanson de la Haute-Bretagne - Adolphe Orain - 1902
O:France
A:Pays Gallo
Z:<anamnese@laposte.net> -- http://anamnese.fr.st
M:6/8
L:1/4
Q:1/4=120
K:D
F/ | FE/DF/ | (F3/2E) F/ | FE/DF/ | (F3/2E) z/ | D3/2EF/ | FD<E |
B,/ B,/ B,/ B,C/ | DD<D | EF/FD/ | E>B, B,/ B,/ | B,E<D ||
W:Du premier coup qu'ell' frappe, (bis)
W:Son battou a cass, - digue ma dondaine,
W:Son battou a cass, - digue ma dond.
W:
W:La fille est dsole, Ell'se mit  pleurer.
W:Par le grand chemin passe, Beau jeune cavalier.
W:Qui lui demanda, belle, Qu'avez-vous  pleurer  /.../
